X: 15710
T: Golden Keyboard, The
R: reel
M: 4/4
K: Edorian
|:EB,EF GFGA|(3B=cB ge fded|BGEF GBAG|(3FED AD BDAF|
EF/E/ EF GFGA|(3B=cB ge fde^c|dfec dBAF|DFAF GE E2:|
|:Be (3eee Bee=c|Beef edBc|dAFA eAce|dfec dBAF|
EB,EF GFGA|B=c/B/ Bg fde^c|dfec dBAF|DFAF GEE2:|

